X: 2869
T: Barlow Knife
R: polka
M: 2/4
K: Gmajor
|:gg f/g/a/f/|gg B>d|g g/e/ f/e/d/f/|ed d>d:|
|:e/f/e/d/ B/G/B/d/|ed B>d|e/f/e/d/ B/A/G/B/|1 AG G B/d/:|2 AG G>A||
|:Ad B/A/G/B/|Ad B>A|Ad/A/ B/A/G/B/|AG/F/ G2:|

